X:1
T: Ruddy Turnstone, The
I:
I:
C: J. M. Graetz
M: 6/8
R: jig
K: D
AG|: "D"FGA A2A| "Em"B3- BAG| "D"FDF GAB| "A7"E3- EAG|
"D"FDD D2A| "G"BGG "(Em)"EFG|1 "D"ABA AGF| "A7"E3- EAG :|2 "A7"ABA GFE| "D"D2E "E7"F2|]
[K:A]|:^G| "A"A3 Bcd| e3- edc| "E"BGB dcB| "A"cBA "E"Bcd|
    "A"ecc c2e| "Bm"fdd B2A| "E7"GEG dcB|1 "A"A2E "E7"F2 :|2                                         | "A"A2z "A7"=G3|]
%
%
